X: 1
T: High Clouds
C: David Kaynor \251 1980
%D:1980
R: waltz
N: W-30 [RJ]
Z: Transcribed to ABC by Mary Lou Knack
B: text From "The Waltz Book", Bill Matthiesen.
M: 3/4
L: 1/8
K: G
% = = = = = = = = = =
V: 1 staves=2
D2 |:\
     "G"G3 F GA | Bd3 D2 | "C"E4 ED | EG3 FE | "G"D2 G2 "D"A2 | "G"Bd3 "C"c2 |
|[1 "Am"BA z2 G2 | "D"[D4A4] (3DEF :|[2 "D"B3G A2 | "G"G4 \
|: Bc | "G"d3B GD | "C"EG3 E2 | "D"D3 E DC |
|[1 "G"B,4 Bc | d2 B3A | "Em"G2 F2 G2 | "A"A4- AB | "D"A4 \
:|[2 "G"B,2 C2 D2 | "C"E3F GB | "D"A4 G2 | "G"G6- | G4 |]
% = = = = = = = = = =
V: 2
B,2 |:\
     "G"D3 D DF | GB-B2 B,2 | "C"C4 CB, | CE- E2 DC | "G"B,2 D2 "D"F2 | "G/B"GB- B2 "C"A2 |
|[1 "Am"G3 F E2 | "D"F4 B,2 :|[2 "D7"F3 D C2 | "G"B,4 \
|: GA |\
    "G"B3 G DB,| "C"CE-E2 C2 | "D"B,3 C B,A, |
|[1 "G"G,4 GA | "G"B2 G3 E | "Em"E2 D2 E2 | "Am"E3 E FG | "D"F4 \
:|[2 "G"G,2 A,2 B,2 | "Am"C3 D E2 | "D"D4 C2 | "G"B,6- | B,4 |]
% = = = = = = = = = =
%%begintext align
%% "This was composed when I was working in a high school special ed program,
%% helping a teacher who was showing some of his photographs to a particularly
%% inattentive and unappreciative group of kids. He had taken exquisite pictures of
%% clouds - that's where I got the idea for the tune". Recorded on 'The Chimes of
%% Dunkirk', from New England Dancing Masters Productions, 6 Willow St, Brattleboro,
%% VT 05301.
%%endtext
